build/img/svg/scale-auto.svg

<svg id="scale-original.svg" xmlns="http://www.w3.org/2000/svg" width="38" height="38" viewBox="0 0 38 38"><defs><style>.cls-1,.cls-2{fill:#fff;fill-rule:evenodd}.cls-1{opacity:.85}.cls-2{opacity:.35}</style></defs><path id="_3" data-name="3" class="cls-1" d="M5 43V5h38v38H5zm33-26a3 3 0 0 0-3-3H13a3 3 0 0 0-3 3v14a3 3 0 0 0 3 3h22a3 3 0 0 0 3-3V17z" transform="translate(-5 -5)"/><path id="_2" data-name="2" class="cls-2" d="M14 33a3 3 0 0 1-3-3v-1l3-4 2.507 4.011zm20 0l-3.4-5.416-3.089 4.916-2.079-3.309L31 23l5.955 7.444A2.992 2.992 0 0 1 34 33z" transform="translate(-5 -5)"/><path id="_1" data-name="1" class="cls-1" d="M27.511 32.5l3.089-4.916L34 33H14l6.916-11.01zM31.505 21a2.5 2.5 0 1 1 2.5-2.5 2.5 2.5 0 0 1-2.5 2.5z" transform="translate(-5 -5)"/></svg>

<svg id="scale-original.svg" xmlns="http://www.w3.org/2000/svg" width="38" height="38" viewBox="0 0 38 38">
  <defs>
    <style>
      .cls-1, .cls-2 {
        fill: #fff;
        fill-rule: evenodd;
      }

      .cls-1 {
        opacity: 0.85;
      }

      .cls-2 {
        opacity: 0.35;
      }
    </style>
  </defs>
  <path id="_3" data-name="3" class="cls-1" d="M5,43V5H43V43H5ZM38,17a3,3,0,0,0-3-3H13a3,3,0,0,0-3,3V31a3,3,0,0,0,3,3H35a3,3,0,0,0,3-3V17Z" transform="translate(-5 -5)"/>
  <path id="_2" data-name="2" class="cls-2" d="M14,33h0a3,3,0,0,1-3-3V29l3-4,2.507,4.011Zm20,0-3.4-5.416L27.511,32.5l-2.079-3.309L31,23l5.955,7.444A2.992,2.992,0,0,1,34,33h0Z" transform="translate(-5 -5)"/>
  <path id="_1" data-name="1" class="cls-1" d="M27.511,32.5L30.6,27.584,34,33H14l6.916-11.01ZM31.505,21a2.5,2.5,0,1,1,2.5-2.5A2.5,2.5,0,0,1,31.505,21Z" transform="translate(-5 -5)"/>
</svg>
